symbols/web/kitchen/materialsymbolsrounded/kitchen_wght700grad200_48px.svg

<svg xmlns="http://www.w3.org/2000/svg" height="48" width="48"><path d="M17.1 15.95q-.7 0-1.2-.45t-.5-1.25v-2.4q0-.8.5-1.25.5-.45 1.2-.45.75 0 1.225.45.475.45.475 1.25v2.4q0 .8-.5 1.25-.5.45-1.2.45Zm0 17.55q-.7 0-1.2-.475t-.5-1.275v-5.9q0-.75.5-1.225.5-.475 1.2-.475.75 0 1.225.475.475.475.475 1.225v5.9q0 .8-.5 1.275-.5.475-1.2.475Zm-5.65 11.55q-1.85 0-3.2-1.325T6.9 40.5v-33q0-1.95 1.35-3.275t3.2-1.325h25.1q1.85 0 3.225 1.325T41.15 7.5v33q0 1.9-1.375 3.225Q38.4 45.05 36.55 45.05Zm0-4.55h25.1V21.45h-25.1V40.5Zm0-21.9h25.1V7.5h-25.1Z"/></svg>

<svg xmlns="http://www.w3.org/2000/svg" height="48" width="48"><path d="M17.1 15.95Q16.4 15.95 15.9 15.5Q15.4 15.05 15.4 14.25V11.85Q15.4 11.05 15.9 10.6Q16.4 10.15 17.1 10.15Q17.85 10.15 18.325 10.6Q18.8 11.05 18.8 11.85V14.25Q18.8 15.05 18.3 15.5Q17.8 15.95 17.1 15.95ZM17.1 33.5Q16.4 33.5 15.9 33.025Q15.4 32.55 15.4 31.75V25.85Q15.4 25.1 15.9 24.625Q16.4 24.15 17.1 24.15Q17.85 24.15 18.325 24.625Q18.8 25.1 18.8 25.85V31.75Q18.8 32.55 18.3 33.025Q17.8 33.5 17.1 33.5ZM11.45 45.05Q9.6 45.05 8.25 43.725Q6.9 42.4 6.9 40.5V7.5Q6.9 5.55 8.25 4.225Q9.6 2.9 11.45 2.9H36.55Q38.4 2.9 39.775 4.225Q41.15 5.55 41.15 7.5V40.5Q41.15 42.4 39.775 43.725Q38.4 45.05 36.55 45.05ZM11.45 40.5H36.55Q36.55 40.5 36.55 40.5Q36.55 40.5 36.55 40.5V21.45H11.45V40.5Q11.45 40.5 11.45 40.5Q11.45 40.5 11.45 40.5ZM11.45 18.6H36.55V7.5Q36.55 7.5 36.55 7.5Q36.55 7.5 36.55 7.5H11.45Q11.45 7.5 11.45 7.5Q11.45 7.5 11.45 7.5Z"/></svg>
